X: 27
M:6/8
L:1/8
K:G
"Andante moderato"D|EFE EDB,|G3 G2 A|BcB BAB|d3 dge|
dBG BdB|AFD DFA|BGE DB,D|E3 E2:|
|:d|efe edB|g3 f2 e|dBG GAB|d3 d2 B|

